icons/desktop/16/svg/playback-rewind-16.svg

<svg width="16" height="16" viewBox="0 0 16 16" fill="none" xmlns="http://www.w3.org/2000/svg">
<path d="M8.49939 0C12.6416 0 15.9994 3.35779 15.9994 7.5C15.9994 11.6422 12.6416 15 8.49939 15C5.15074 14.9997 2.31607 12.8053 1.35193 9.77734C1.2265 9.38282 1.44479 8.96069 1.83923 8.83496C2.23383 8.70939 2.65589 8.92773 2.78162 9.32227C3.55335 11.7459 5.82259 13.4997 8.49939 13.5C11.8132 13.5 14.4994 10.8138 14.4994 7.5C14.4994 4.18621 11.8132 1.5 8.49939 1.5C6.58118 1.5002 4.87385 2.40169 3.77478 3.80469L5.1156 5.14648C5.43056 5.46148 5.20804 5.99996 4.76208 6H1.26404C0.988038 6 0.764038 5.776 0.764038 5.5V2.00098C0.764063 1.556 1.30256 1.33249 1.61755 1.64746L2.70642 2.73633C4.08142 1.06624 6.16552 0.00019093 8.49939 0Z" fill="black"/>
<path d="M10.5677 5.55469H8.02478L7.87439 7.01172H7.90759C8.00959 6.86772 8.16546 6.7493 8.37146 6.6543C8.57735 6.55939 8.80901 6.51174 9.06384 6.51172C9.41384 6.51172 9.72732 6.59379 10.0023 6.75879C10.2771 6.92369 10.4928 7.14978 10.6527 7.4375C10.8117 7.72345 10.891 8.05384 10.889 8.42676C10.891 8.81875 10.7996 9.16768 10.6156 9.47168C10.4336 9.77464 10.1789 10.0135 9.85193 10.1875C9.52597 10.3595 9.14712 10.4472 8.71619 10.4473V10.4492C8.31419 10.4492 7.95697 10.3746 7.64197 10.2266C7.33009 10.0786 7.08078 9.87612 6.89783 9.61621C6.71383 9.35621 6.61872 9.05863 6.61072 8.72363H7.80408C7.81708 8.9486 7.91231 9.13149 8.08826 9.27148C8.26426 9.41148 8.47319 9.48242 8.71619 9.48242C8.90912 9.4824 9.07997 9.43849 9.22693 9.35352C9.37676 9.26659 9.4926 9.14695 9.57556 8.99316C9.66056 8.83817 9.70446 8.65997 9.70447 8.45898C9.70447 8.25398 9.65963 8.07495 9.57263 7.91895C9.48764 7.76403 9.36908 7.64166 9.21814 7.55469C9.06615 7.4677 8.89262 7.4229 8.69763 7.4209C8.52777 7.42095 8.36144 7.45642 8.20056 7.52637C8.04204 7.59625 7.91834 7.69187 7.82947 7.8125L6.73474 7.61719L7.01111 4.54883H10.5677V5.55469Z" fill="black"/>
</svg>

<!-- This Source Code Form is subject to the terms of the Mozilla Public
   - License, v. 2.0. If a copy of the MPL was not distributed with this
   - file, You can obtain one at http://mozilla.org/MPL/2.0/. -->
<svg xmlns="http://www.w3.org/2000/svg" width="16" height="16" fill="context-fill" fill-opacity="context-fill-opacity" viewBox="0 0 16 16">
    <path d="M8.5 0a7.5 7.5 0 1 1-7.148 9.777.75.75 0 0 1 1.43-.455 6 6 0 1 0 .993-5.518l1.34 1.342A.5.5 0 0 1 4.763 6H1.264a.5.5 0 0 1-.5-.5V2.001a.5.5 0 0 1 .854-.354l1.088 1.09A7.49 7.49 0 0 1 8.5 0" />
    <path d="M10.568 5.555H8.025l-.15 1.457h.033q.154-.216.463-.358t.693-.142q.525 0 .938.247.411.247.65.678.24.43.237.99.002.588-.273 1.045a1.93 1.93 0 0 1-.764.716q-.49.259-1.136.26v.001q-.602 0-1.074-.222a1.87 1.87 0 0 1-.744-.61 1.57 1.57 0 0 1-.287-.893h1.193a.73.73 0 0 0 .284.547q.264.21.628.211.29-.001.51-.128a.9.9 0 0 0 .35-.36q.128-.234.128-.535 0-.307-.131-.54a.93.93 0 0 0-.355-.364 1.05 1.05 0 0 0-.52-.134q-.256 0-.497.105a.9.9 0 0 0-.372.287l-1.094-.196.276-3.068h3.557z" />
</svg>
